wp-content/plugins/one-click-demo-import/assets/images/icons/content.svg

<svg width="53" height="53" viewBox="0 0 53 53" fill="none" xmlns="http://www.w3.org/2000/svg">
<path d="M6.75 11H0.375V52.625H32.375V46.25H6.75V11ZM51.25 5.875L47.125 1.75C46.4583 1.08333 45.625 0.708333 44.625 0.625C43.625 0.541667 42.75 0.791667 42 1.375L38.75 4.625H10V43H38.75V23.75L51.625 11C52.2083 10.25 52.4583 9.375 52.375 8.375C52.2917 7.375 51.9167 6.54167 51.25 5.875ZM33 25.125L25 28L27.875 20L42 5.875L47.125 11L33 25.125Z" fill="#999999"/>
</svg>

<svg xmlns="http://www.w3.org/2000/svg" width="53" height="53" fill="none"><path fill="#999" d="M6.75 11H.375v41.625h32V46.25H6.75zm44.5-5.125L47.125 1.75q-1-1-2.5-1.125-1.5-.124-2.625.75l-3.25 3.25H10V43h28.75V23.75L51.625 11q.874-1.125.75-2.625t-1.125-2.5M33 25.125 25 28l2.875-8L42 5.875 47.125 11z"/></svg>
